src/Pure/16/symbolic/actions/xapp-annotations-squiggly-symbolic.svg

<?xml version="1.0" encoding="UTF-8" standalone="no"?>
<svg
   width="16"
   height="16"
   version="1.1"
   id="svg2"
   sodipodi:docname="xapp-annotations-squiggly-symbolic.svg"
   inkscape:version="1.4.2 (ebf0e940d0, 2025-05-08)"
   xmlns:inkscape="http://www.inkscape.org/namespaces/inkscape"
   xmlns:sodipodi="http://sodipodi.sourceforge.net/DTD/sodipodi-0.dtd"
   xmlns="http://www.w3.org/2000/svg"
   xmlns:svg="http://www.w3.org/2000/svg">
  <defs
      id="defs2">
      <style
          id="current-color-scheme"
          type="text/css">
          .ColorScheme-Text { color:#363636; }
      </style>
  </defs>
  <sodipodi:namedview
     id="namedview2"
     pagecolor="#ffffff"
     bordercolor="#000000"
     borderopacity="0.25"
     inkscape:showpageshadow="2"
     inkscape:pageopacity="0.0"
     inkscape:pagecheckerboard="0"
     inkscape:deskcolor="#d1d1d1"
     inkscape:zoom="49.6875"
     inkscape:cx="8"
     inkscape:cy="8"
     inkscape:window-width="1920"
     inkscape:window-height="1010"
     inkscape:window-x="0"
     inkscape:window-y="0"
     inkscape:window-maximized="1"
     inkscape:current-layer="svg2" />
  <path
     id="path1"
     style="fill:currentColor;fill-opacity:1"
     class="ColorScheme-Text"
     d="M 4 1 L 4 2 L 10 2 C 11.108 2 12 2.892 12 4 L 12 5 L 6 5 C 4.338 5 3 6.338 3 8 C 3 9.662 4.338 11 6 11 L 13 11 L 13 4 C 13 2.338 11.662 1 10 1 L 4 1 z M 6 6 L 12 6 L 12 10 L 6 10 C 4.892 10 4 9.108 4 8 C 4 6.892 4.892 6 6 6 z M 3.5097656 12.585938 L 1.1542969 14.939453 C 0.68294688 15.412113 1.3919313 16.119154 1.8632812 15.646484 L 3.5097656 14 L 5.5097656 16 L 7.5097656 14 L 9.5097656 16 L 11.509766 14 L 13.509766 16 L 15.863281 13.646484 C 16.334631 13.173824 15.625647 12.466783 15.154297 12.939453 L 13.509766 14.585938 L 11.509766 12.585938 L 9.5097656 14.585938 L 7.5097656 12.585938 L 5.5097656 14.585938 L 3.5097656 12.585938 z " />
</svg>

<svg width="16" height="16" version="1.1" xmlns="http://www.w3.org/2000/svg">
 <path d="m3.5106 12.586-2.3555 2.3535c-0.47135 0.47266 0.23763 1.1797 0.70898 0.70703l1.6465-1.6465 2 2 2-2 2 2 2-2 2 2 2.3535-2.3535c0.47135-0.47266-0.23763-1.1797-0.70898-0.70703l-1.6445 1.6465-2-2-2 2-2-2-2 2z" fill="#363636"/>
 <path d="m4 1v1h6c1.108 0 2 0.892 2 2v1h-6c-1.662 0-3 1.338-3 3s1.338 3 3 3h7v-7c0-1.662-1.338-3-3-3zm2 5h6v4h-6c-1.108 0-2-0.892-2-2s0.892-2 2-2z" fill="#363636"/>
</svg>
